assets/icons/qvision/face_retouching_natural.svg

<svg xmlns="http://www.w3.org/2000/svg" height="24" viewBox="0 0 24 24" width="24"><path d="M0 0h24v24H0z" fill="none"/><circle cx="9" cy="13" r="1.25"/><path d="M20.77 8.58l-.92 2.01c.09.46.15.93.15 1.41 0 4.41-3.59 8-8 8s-8-3.59-8-8c0-.05.01-.1 0-.14 2.6-.98 4.69-2.99 5.74-5.55C11.58 8.56 14.37 10 17.5 10c.45 0 .89-.04 1.33-.1l-.6-1.32-.88-1.93-1.93-.88-2.79-1.27 2.79-1.27.71-.32C14.87 2.33 13.47 2 12 2 6.48 2 2 6.48 2 12s4.48 10 10 10 10-4.48 10-10c0-1.47-.33-2.87-.9-4.13l-.33.71z"/><circle cx="15" cy="13" r="1.25"/><path d="M20.6 5.6L19.5 8l-1.1-2.4L16 4.5l2.4-1.1L19.5 1l1.1 2.4L23 4.5z"/></svg>

<svg width="24" height="24" viewBox="0 0 24 24" fill="none" xmlns="http://www.w3.org/2000/svg">
<g clip-path="url(#clip0_147_3395)">
<path d="M9 14.25C9.69036 14.25 10.25 13.6904 10.25 13C10.25 12.3096 9.69036 11.75 9 11.75C8.30964 11.75 7.75 12.3096 7.75 13C7.75 13.6904 8.30964 14.25 9 14.25Z" fill="#323232"/>
<path d="M20.77 8.58L19.85 10.59C19.94 11.05 20 11.52 20 12C20 16.41 16.41 20 12 20C7.59 20 4 16.41 4 12C4 11.95 4.01 11.9 4 11.86C6.6 10.88 8.69 8.87 9.74 6.31C11.58 8.56 14.37 10 17.5 10C17.95 10 18.39 9.96 18.83 9.9L18.23 8.58L17.35 6.65L15.42 5.77L12.63 4.5L15.42 3.23L16.13 2.91C14.87 2.33 13.47 2 12 2C6.48 2 2 6.48 2 12C2 17.52 6.48 22 12 22C17.52 22 22 17.52 22 12C22 10.53 21.67 9.13 21.1 7.87L20.77 8.58Z" fill="#323232"/>
<path d="M15 14.25C15.6904 14.25 16.25 13.6904 16.25 13C16.25 12.3096 15.6904 11.75 15 11.75C14.3096 11.75 13.75 12.3096 13.75 13C13.75 13.6904 14.3096 14.25 15 14.25Z" fill="#323232"/>
<path d="M20.6 5.6L19.5 8L18.4 5.6L16 4.5L18.4 3.4L19.5 1L20.6 3.4L23 4.5L20.6 5.6Z" fill="#323232"/>
</g>
<defs>
<clipPath id="clip0_147_3395">
<rect width="24" height="24" fill="white"/>
</clipPath>
</defs>
</svg>
